images/4.svg

<svg width="191" height="102" viewBox="0 0 191 102" fill="none" xmlns="http://www.w3.org/2000/svg">
<path d="M45.84 36.8716C45.84 47.7196 36.8227 56.5135 25.6971 56.5135C14.5736 56.5135 5.55637 47.7196 5.55637 36.8716C5.55637 26.0237 14.5736 17.2297 25.6971 17.2297C36.8227 17.2297 45.84 26.0237 45.84 36.8716Z" fill="white"/>
<path d="M64.2455 45.3704C61.0625 45.3704 59.2862 43.4982 59.2862 40.1958V23.4324H51.3964V40.1525C51.3964 47.494 56.0581 51.6892 64.2455 51.6892C72.4328 51.6892 77.0945 47.494 77.0945 40.1525V23.4324H69.2047V40.1958C69.2047 43.4982 67.4284 45.3704 64.2455 45.3704Z" fill="white"/>
<path d="M90.628 51.6892C97.4321 51.6892 101.894 48.1243 101.894 42.8337C101.894 39.0596 99.5966 36.1485 93.5022 34.5099L91.3732 33.9346C88.3304 33.1153 87.2038 32.2176 87.2038 30.9014C87.2038 29.5069 88.4546 28.7311 90.6635 28.7311C93.3425 28.7311 96.2167 30.2041 98.2216 31.8864L102.098 27.0925C99.0554 24.3818 94.9659 22.7432 90.628 22.7432C84.0724 22.7432 79.4861 26.2296 79.4861 31.5987C79.4861 35.7388 82.2361 38.4495 87.328 39.7569L89.0845 40.2102C92.8812 41.1951 94.1764 41.9359 94.1764 43.4089C94.1764 44.9255 92.8369 45.7013 90.5837 45.7013C87.2482 45.7013 84.4893 44.5159 82.2361 42.5461L78.4836 47.183C81.6151 50.0506 85.9974 51.6892 90.628 51.6892Z" fill="white"/>
<path d="M124.051 51H131.964L121.543 23.4324H112.51L102.098 51H109.789L111.594 45.8553H122.254L124.051 51ZM113.559 40.2539L116.946 30.6109L120.29 40.2539H113.559Z" fill="white"/>
<path d="M59.9531 84.7702H67.8343V62.7496H76.4V56.5135H51.3964V62.7496H59.9531V84.7702Z" fill="white"/>
<path d="M90.6427 84.7703C99.2669 84.7703 105.571 78.826 105.571 70.3365C105.571 61.8558 99.2669 55.8243 90.6427 55.8243C82.0095 55.8243 75.7054 61.8558 75.7054 70.3365C75.7054 78.826 82.0095 84.7703 90.6427 84.7703ZM90.6427 78.4599C86.5419 78.4599 83.7001 75.1739 83.7001 70.3365C83.7001 65.4991 86.5419 62.1435 90.6427 62.1435C94.7434 62.1435 97.5762 65.4991 97.5762 70.3365C97.5762 75.1739 94.7434 78.4599 90.6427 78.4599Z" fill="white"/>
<path d="M108.349 84.7702H119.292C127.508 84.7702 133.353 78.9493 133.353 70.6463C133.353 62.3344 127.508 56.5135 119.292 56.5135H108.349V84.7702ZM115.827 78.6666V62.6259H119.292C123.296 62.6259 125.754 65.8235 125.754 70.6463C125.754 75.4603 123.296 78.6666 119.292 78.6666H115.827Z" fill="white"/>
<path d="M153.916 84.7702H161.829L151.409 56.5135H142.375L131.964 84.7702H139.654L141.459 79.4969H152.12L153.916 84.7702ZM143.424 73.7555L146.812 63.8714L150.155 73.7555H143.424Z" fill="white"/>
<path d="M174.775 74.5946L184.749 56.5135H176.061L170.885 67.7314L165.665 56.5135H156.967L166.95 74.5946V84.7702H174.775V74.5946Z" fill="white"/>
</svg>

<svg xmlns="http://www.w3.org/2000/svg" width="191" height="102" fill="none" viewBox="0 0 191 102"><path fill="#fff" d="M45.84 36.872c0 10.848-9.017 19.642-20.143 19.642-11.123 0-20.14-8.794-20.14-19.642s9.017-19.642 20.14-19.642c11.126 0 20.143 8.794 20.143 19.642m18.406 8.498c-3.183 0-4.96-1.872-4.96-5.174V23.432h-7.89v16.72c0 7.342 4.662 11.537 12.85 11.537s12.849-4.195 12.849-11.536v-16.72h-7.89v16.763c0 3.302-1.777 5.174-4.96 5.174m26.383 6.32c6.804 0 11.266-3.566 11.266-8.856 0-3.774-2.297-6.686-8.392-8.324l-2.129-.575c-3.043-.82-4.17-1.717-4.17-3.034 0-1.394 1.252-2.17 3.46-2.17 2.68 0 5.554 1.473 7.559 3.155l3.876-4.793a17.3 17.3 0 0 0-11.47-4.35c-6.556 0-11.142 3.487-11.142 8.856 0 4.14 2.75 6.85 7.842 8.158l1.757.453c3.796.985 5.091 1.726 5.091 3.199 0 1.517-1.34 2.292-3.592 2.292-3.336 0-6.095-1.185-8.348-3.155l-3.752 4.637c3.131 2.868 7.513 4.506 12.144 4.506M124.051 51h7.913l-10.421-27.568h-9.033L102.098 51h7.691l1.805-5.145h10.66zm-10.492-10.746 3.387-9.643 3.344 9.643zM59.953 84.77h7.881V62.75H76.4v-6.236H51.396v6.236h8.557zm30.69 0c8.624 0 14.928-5.944 14.928-14.433 0-8.481-6.304-14.513-14.928-14.513-8.633 0-14.938 6.032-14.938 14.513 0 8.489 6.305 14.433 14.938 14.433m0-6.31c-4.101 0-6.943-3.286-6.943-8.123 0-4.838 2.842-8.193 6.943-8.193s6.933 3.355 6.933 8.193-2.833 8.123-6.933 8.123m17.706 6.31h10.943c8.216 0 14.061-5.82 14.061-14.124 0-8.312-5.845-14.132-14.061-14.132h-10.943zm7.478-6.103V62.626h3.465c4.004 0 6.462 3.197 6.462 8.02 0 4.814-2.458 8.02-6.462 8.02zm38.089 6.103h7.913l-10.42-28.256h-9.034L131.964 84.77h7.69l1.805-5.273h10.661zm-10.492-11.014 3.388-9.885 3.343 9.884zm31.351.839 9.974-18.081h-8.688l-5.176 11.217-5.22-11.217h-8.698l9.983 18.08V84.77h7.825z"/></svg>
